Front/img/common-section_sousmetier/illu-2.svg

<svg xmlns="http://www.w3.org/2000/svg" fill="none" viewBox="0 0 472 541"><path fill="#E1E1E1" fill-rule="evenodd" d="M71.876 65c-4.07 10.893-6.296 22.687-6.296 35v440H470V110C470 49.249 420.751 0 360 0H165.58c-27.301 0-52.047 10.94-70.093 28.677 9.321 2.133 14.802 7.3 19.788 12.001 5.15 4.855 9.771 9.212 17.55 9.212 18.599 0 26.936 8 26.936 15.11H71.876z" clip-rule="evenodd"/><path fill="#fff" d="M461.578 115h-248c0-8.095 7.624-24.286 38.118-24.286C305.813 90.714 304.402 55 342.99 55c44.706 0 47.059 35.714 75.294 35.714 29.893 0 43.294 12.857 43.294 24.286z"/><path fill="#24AD79" d="M379.768 398.826s-64.77 0-64.77-60.558c0-60.557 40.831-77.456 32.383-121.818-8.447-44.361 25.347-88.019 71.823-61.263 46.475 26.757 10.46 118.533 26.751 146.467 16.292 27.934 21.11 101.4-66.187 97.172z"/><path fill="#179364" fill-rule="evenodd" d="M390.634 147.007c11.763 10.113 20.874 27.98 14.285 56.975-13.249 58.307-3.974 82.159 7.95 103.362 11.853 21.077-6.406 97.154-89.919 62.906 17.388 28.576 56.646 28.576 56.646 28.576 87.297 4.228 82.479-69.238 66.187-97.172-6.198-10.627-4.825-30.495-3.304-52.507 2.477-35.847 5.347-77.383-23.447-93.96-10.178-5.859-19.747-8.342-28.398-8.18z" clip-rule="evenodd"/><path fill="#fff" d="M377.167 335.785c-.001-11.019-12.391-33.363-16.175-40.572 21.397 37.101 23.877 13.38 26.82 5.231 2.354-6.519-.227-22.939-1.811-30.333 1.755 6.64 5.978 19.15 8.828 16.072 2.85-3.079 9.94-19.996 13.129-28.07-6.489 19.015-18.912 58.246-16.692 63.05 2.221 4.804 18.225 2.001 25.95 0-20.327 7.352-25.769 20.723-25.95 26.49v176.239h-14.099V335.785z"/><path fill="#0C2048" d="M134.08 419.498c24 4 78.666 12.334 103 16h3.5l-17 104.501h-30c5-33 22.5-60 19-71s-29-18-47-25.5-28 5.999-36-10.501c-6.4-13.2.333-14.5 4.5-13.5z"/><path fill="#152D5D" d="M86.082 310.5c-4.43-1.846-11.5-7-85.5-4v234h469c3.6-37.6-11.833-64.333-20-73-26-17.6-169.167-40-237.5-49-61-61-114-103-126-108z"/><path fill="#E1E1E1" d="M96.582 329c32.4 23.6 79.5 70.5 99 91h-195V318h70c13.2.4 21.5 7.5 26 11z"/><path fill="#666A6A" d="M409.58 470.498c19.2 2.4 40.667 8.334 49 11 5.2 7.2 9.167 21 9.5 27-15.2-.4-40.666-4.833-49.5-9-8.833-4.166-16-29.875-9-29zM116.582 391.5l-9.5 28.5h7.5l8.5-27c.333-1.167.4-3.7-2-4.5-2.4-.8-4 1.667-4.5 3zM123.082 420c16.8-14.4 36.5-21.833 44.5-24l21.5 24h-66z"/><rect width="37" height="59" x="8.582" y="344" fill="#666A6A" rx="17"/><path fill="#666A6A" d="M20.582 401h11v5h-11zM22.582 406h7v14h-7z"/><path fill="#666A6A" d="M25.082 414c-10 0-15.167 4-16.5 6h46.5c-5.5-5.5-17-6-30-6zM130.582 414.5l-14-2.5-2 4 11 2 5-3.5z"/><path fill="#152D5D" d="M181.083 404.499c3.6 4 13.5 12 18 15.5h-13c-5.6-6.801-13.334-4.834-16.5-3-9.2 2.4-14.5 3-16.5-1.5-3-4.5-3.5-25.8 4.5-25 10 1 19 9 23.5 14z"/><path fill="#fff" d="M6.58 154l.5 386.5h5V163.062l54.537 16.861v126.492l5.988.619-1.025-132.031L6.58 154z"/><path fill="#081B42" d="M66.616 306.431l-54.55-.146-.226-143.465 54.776 17.034v126.577z"/><path fill="#E2BBA6" d="M189.402 395.741s10.864-1.462 19.56-12.276c0 0-2.169 9.092 9.429 19.505 8.033 7.189 1.767 45.488-1.617 52.246 0 0 32.052 31.58 84.226 6.288 0 0-13.104-47.69-14.058-74.654-1.175-30.619-4.719-50.304-15.443-79.211-10.724-28.906-13.265-44.856-11.809-60.076 1.456-15.219.723-39.049-26.107-44.806-26.83-5.758-30.003 25.792-30.003 25.792s-2.37 40.341 8.184 49.583c9.248 8.15 25.103-2.193 25.103-2.193s3.675 18.714-.583 25.322c0 0-5.874 6.719-20.383 12.496-15.153 6.008-17.583 50.064-25.616 58.134"/><path fill="#CEA999" d="M220.348 203.23c-1.075 6.559-2.792 17.092-4.378 27.475 1.004-9.782 2.861-20.616 4.147-27.394l.231-.081z"/><path fill="#CEA999" d="M203.599 228.59l12.371 2.113-.623 9.411c-.12 5.167 2.874 5.422 4.149 7.384 5.342 8.241 5.082-7.804 9.5-7.384 4.419.421 6.283 6.128 3.11 14.699-3.173 8.571 8.234 10.954 9.218 15.76.984 4.806 8.645 31.87 0 41.132L228.08 307.7a40.023 40.023 0 008.193-6.398c4.258-6.608.583-25.322.583-25.322s-15.845 10.343-25.103 2.193a12.028 12.028 0 01-2.009-2.323c-5.271-7.38-6.024-26.113-6.175-30.128-.151-4.016.03-17.132.03-17.132z"/><path fill="#00181B" d="M227.579 241c-2.8 2.4-5.167 12.333-6 17 1-11.5-6.898-15.699-15.5-20-6-3-12.188-10-10-17 2.5-8 5.5-5 13-14.5s17.79-8.526 23-6.5c9 3.5 9.5 4.5 15 7.5 4.907 2.677 5.566 1.484 14 5.5 10.5 5 12 19.5 8.5 28s-6 8-3.5 15 0 10-3.5 13.5c-2.8 2.8-3.834 7.167-4 9-1.5-3-7.5-6.5-13.5-5.5s-5.5-6-9.5-8.5-5.5-5-3-12-1.5-14.5-5-11.5z"/><path fill="#2B2B2B" d="M196.58 228.499c-1-2-2.2-7.1 1-11.5 4-5.5 5.5-2 10.5-9s10.5-11 21.5-9 13.5 8 24 11c10.228 2.923 16.661 6.32 17.911 20.36.061.428.089.812.089 1.14a54.015 54.015 0 00-.089-1.14c-.436-3.05-2.598-8.352-8.911-11.86-9-5-14.5-5-25-10.5s-18-8-24.5 0-12.5 7.5-14.5 11.5-2 5-2 9z"/><path fill="#F4EFEF" d="M218.08 451.633s-15.245 54.657-14.381 89.06h116.879s-1-27.194-5.5-45.194c-4.5-18-15.975-41.213-15.975-41.213s-44.533 22.819-81.023-2.653z"/><path fill="#00181B" d="M117.578 384.5c15 2.5 43.996-6.268 62-23.5 13.877-13.277 11.5-31.176 32.5-46 8.5-6 17.583-6.595 22.5-13.5 4.962-6.969 3.5-17.5 3.5-17.5 10.5 2 20.271 2.426 25-2.5 9.5 27 10.795 22.28 20 29.5 25.5 20 14.896 64.391 16 95 4 35.011 9.5 67 9.5 67-39.5 40-99.615 13.5-99.615 13.5 3.115-18.5 3.115-42.5 0-72.5-2.169-20.888-4.385-26-4.385-26-8 8.5-17.866 12.489-17.866 12.489-23.134 13.511-58.134 5.011-69.134 1.413V384.5z"/><path fill="#000" d="M266.902 465.07c-.18 1.212-.351 2.393-.522 3.565.171-1.172.342-2.353.522-3.565zM267.044 464.15c0-.321.09-.641.14-1.002-.04.361-.1.681-.14 1.002z" opacity=".3"/><path fill="#152D5D" d="M266.442 522l4.136 19h-10c2-9 5.227-16.833 5.864-19z"/><path fill="#666A6A" d="M266.578 522l4 19h8l-4-14.5 10.5-6c-4.8.8-14.333 1.333-18.5 1.5z"/><path fill="#000" d="M108.578 379.5V376l-3 1 3 2.5z"/><path fill="#00181B" d="M84.66 365.69l23.786 10.209-12.08 6.783-23.785-10.209 12.078-6.783z"/><path fill="#000" d="M72.578 377.5v-5l6 2.5 1 5.5-7-3z"/><path fill="#00181B" d="M84.66 370.69l23.786 10.209-12.08 6.783-23.785-10.209 12.078-6.783z"/><ellipse cx="89.078" cy="373.5" fill="#CC2131" rx="5.5" ry="2.5"/><path fill="#fff" d="M65.594 364.078l11.486 5.921 2.995-1.792-6.359-3.259-1.46.924-.565-1.722-1.748.643-.565-1.723-4.627-2.158.843 3.166z"/><path fill="#E2BBA6" d="M108.078 379c.779.627 5.75 4.451 8.25 5.139l1.25.413V402c-4.583-1.239-16.665 1.555-20.832 1.968-4.166.413-14.998-3.304-18.331-6.196-2.667-2.314-2.5-4.544-2.083-5.371-1.667-1.322-1.25-4.681-.834-6.196-1.666-1.983-.694-4.958 0-6.197-1.25-2.892 4.581-4.544 5.414-3.305.834 1.24 7.083 4.131 9.166 5.371 1.667.991 7.085 1.79 10.835 2.065-.833-2.616-2.833-8.014-4.166-8.675-1.667-.826-9.166-.413-7.5-2.065 1.667-1.653 10.416-2.066 12.499 0 2.083 2.065 4.998 4.527 6.332 5.601z"/><path fill="#081C42" d="M36.078 492v-33c-2.667 0-8 3.2-8 16s5.333 16.667 8 17z"/><ellipse cx="48.899" cy="475.499" fill="#666A6A" rx="6.731" ry="6.706"/><path fill="#152D5D" d="M48.07 472.188h1.654v6.62H48.07z"/><path fill="#E1E1E1" d="M.586 156.143l5.87-2.088.139-.047.484 386.532H.586V156.143z"/><path fill="#00181B" d="M66.575 306.427l.051-126.583-2.665-.813v127.396h2.614z"/></svg>

<svg width="472" height="541" viewBox="0 0 472 541" fill="none" xmlns="http://www.w3.org/2000/svg">
<path fill-rule="evenodd" clip-rule="evenodd" d="M71.8759 65.0001C67.8053 75.8934 65.5799 87.6868 65.5799 100V540H470V110C470 49.2487 420.751 0 360 0H165.58C138.279 0 113.533 10.9405 95.4873 28.6765C104.808 30.8101 110.289 35.9776 115.275 40.678C120.425 45.5333 125.046 49.8903 132.825 49.8903C151.424 49.8903 159.761 57.8895 159.761 65.0001H71.8759Z" fill="#E1E1E1"/>
<path d="M461.578 115H213.578C213.578 106.905 221.202 90.7143 251.696 90.7143C305.813 90.7143 304.402 55 342.99 55C387.696 55 390.049 90.7143 418.284 90.7143C448.177 90.7143 461.578 103.571 461.578 115Z" fill="white"/>
<path d="M379.768 398.826C379.768 398.826 314.998 398.826 314.998 338.268C314.998 277.711 355.829 260.812 347.381 216.45C338.934 172.089 372.728 128.431 419.204 155.187C465.679 181.944 429.664 273.72 445.955 301.654C462.247 329.588 467.065 403.054 379.768 398.826Z" fill="#24AD79"/>
<path fill-rule="evenodd" clip-rule="evenodd" d="M390.634 147.007C402.397 157.12 411.508 174.987 404.919 203.982C391.67 262.289 400.945 286.141 412.869 307.344C424.722 328.421 406.463 404.498 322.95 370.25C340.338 398.826 379.596 398.826 379.596 398.826C466.893 403.054 462.075 329.588 445.783 301.654C439.585 291.027 440.958 271.159 442.479 249.147C444.956 213.3 447.826 171.764 419.032 155.187C408.854 149.328 399.285 146.845 390.634 147.007Z" fill="#179364"/>
<path d="M377.167 335.785C377.166 324.766 364.776 302.422 360.992 295.213C382.389 332.314 384.869 308.593 387.812 300.444C390.166 293.925 387.585 277.505 386.001 270.111C387.756 276.751 391.979 289.261 394.829 286.183C397.679 283.104 404.769 266.187 407.958 258.113C401.469 277.128 389.046 316.359 391.266 321.163C393.487 325.967 409.491 323.164 417.216 321.163C396.889 328.515 391.447 341.886 391.266 347.653V523.892H377.167V422.827V335.785Z" fill="white"/>
<path d="M134.08 419.498C158.08 423.498 212.746 431.832 237.08 435.498H240.58L223.58 539.999H193.58C198.58 506.999 216.08 479.999 212.58 468.999C209.08 457.999 183.58 450.999 165.58 443.499C147.58 435.999 137.58 449.498 129.58 432.998C123.18 419.798 129.913 418.498 134.08 419.498Z" fill="#0C2048"/>
<path d="M86.082 310.5C81.6512 308.654 74.582 303.5 0.582031 306.5V540.5H469.582C473.182 502.9 457.749 476.167 449.582 467.5C423.582 449.9 280.415 427.5 212.082 418.5C151.082 357.5 98.082 315.5 86.082 310.5Z" fill="#152D5D"/>
<path d="M96.582 329C128.982 352.6 176.082 399.5 195.582 420H70.582H0.582031V318H70.582C83.782 318.4 92.082 325.5 96.582 329Z" fill="#E1E1E1"/>
<path d="M409.58 470.498C428.78 472.898 450.247 478.832 458.58 481.498C463.78 488.698 467.747 502.498 468.08 508.498C452.88 508.098 427.414 503.665 418.58 499.498C409.747 495.332 402.58 469.623 409.58 470.498Z" fill="#666A6A"/>
<path d="M116.582 391.5L107.082 420H114.582L123.082 393C123.415 391.833 123.482 389.3 121.082 388.5C118.682 387.7 117.082 390.167 116.582 391.5Z" fill="#666A6A"/>
<path d="M123.082 420C139.882 405.6 159.582 398.167 167.582 396L189.082 420H123.082Z" fill="#666A6A"/>
<rect x="8.58203" y="344" width="37" height="59" rx="17" fill="#666A6A"/>
<rect x="20.582" y="401" width="11" height="5" fill="#666A6A"/>
<rect x="22.582" y="406" width="7" height="14" fill="#666A6A"/>
<path d="M25.082 414C15.082 414 9.91536 418 8.58203 420H55.082C49.582 414.5 38.082 414 25.082 414Z" fill="#666A6A"/>
<path d="M130.582 414.5L116.582 412L114.582 416L125.582 418L130.582 414.5Z" fill="#666A6A"/>
<path d="M181.083 404.499C184.683 408.499 194.583 416.499 199.083 419.999H186.083C180.483 413.198 172.749 415.165 169.583 416.999C160.383 419.399 155.083 419.999 153.083 415.499C150.083 410.999 149.583 389.699 157.583 390.499C167.583 391.499 176.583 399.499 181.083 404.499Z" fill="#152D5D"/>
<path d="M6.58009 154L7.08009 540.5H12.0801V163.062L66.6174 179.923V306.415L72.6054 307.034L71.5801 175.003L6.58009 154Z" fill="white"/>
<path d="M66.6162 306.431L12.0663 306.285L11.8398 162.82L66.6162 179.854V306.431Z" fill="#081B42"/>
<path d="M189.402 395.741C189.402 395.741 200.266 394.279 208.962 383.465C208.962 383.465 206.793 392.557 218.391 402.97C226.424 410.159 220.158 448.458 216.774 455.216C216.774 455.216 248.826 486.796 301 461.504C301 461.504 287.896 413.814 286.942 386.85C285.767 356.231 282.223 336.546 271.499 307.639C260.775 278.733 258.234 262.783 259.69 247.563C261.146 232.344 260.413 208.514 233.583 202.757C206.753 196.999 203.58 228.549 203.58 228.549C203.58 228.549 201.21 268.89 211.764 278.132C221.012 286.282 236.867 275.939 236.867 275.939C236.867 275.939 240.542 294.653 236.284 301.261C236.284 301.261 230.41 307.98 215.901 313.757C200.748 319.765 198.318 363.821 190.285 371.891" fill="#E2BBA6"/>
<path d="M220.348 203.23C219.273 209.789 217.556 220.322 215.97 230.705C216.974 220.923 218.831 210.089 220.117 203.311L220.348 203.23Z" fill="#CEA999"/>
<path d="M203.599 228.59L215.97 230.703L215.347 240.114C215.227 245.281 218.221 245.536 219.496 247.498C224.838 255.739 224.578 239.694 228.996 240.114C233.415 240.535 235.279 246.242 232.106 254.813C228.933 263.384 240.34 265.767 241.324 270.573C242.308 275.379 249.969 302.443 241.324 311.705L228.08 307.7C231.078 305.932 233.833 303.781 236.273 301.302C240.531 294.694 236.856 275.98 236.856 275.98C236.856 275.98 221.011 286.323 211.753 278.173C210.986 277.487 210.311 276.706 209.744 275.85C204.473 268.47 203.72 249.737 203.569 245.722C203.418 241.706 203.599 228.59 203.599 228.59Z" fill="#CEA999"/>
<path d="M227.579 241C224.779 243.4 222.412 253.333 221.579 258C222.579 246.5 214.681 242.301 206.079 238C200.079 235 193.891 228 196.079 221C198.579 213 201.579 216 209.079 206.5C216.579 197 226.869 197.974 232.079 200C241.079 203.5 241.579 204.5 247.079 207.5C251.986 210.177 252.645 208.984 261.079 213C271.579 218 273.079 232.5 269.579 241C266.079 249.5 263.579 249 266.079 256C268.579 263 266.079 266 262.579 269.5C259.779 272.3 258.745 276.667 258.579 278.5C257.079 275.5 251.079 272 245.079 273C239.079 274 239.579 267 235.579 264.5C231.579 262 230.079 259.5 232.579 252.5C235.079 245.5 231.079 238 227.579 241Z" fill="#00181B"/>
<path d="M196.58 228.499C195.58 226.499 194.38 221.399 197.58 216.999C201.58 211.499 203.08 214.999 208.08 207.999C213.08 200.999 218.58 196.999 229.58 198.999C240.58 200.999 243.08 206.999 253.58 209.999C263.808 212.922 270.241 216.319 271.491 230.359C271.552 230.787 271.58 231.171 271.58 231.499C271.554 231.112 271.524 230.732 271.491 230.359C271.055 227.309 268.893 222.007 262.58 218.499C253.58 213.499 248.08 213.499 237.58 207.999C227.08 202.499 219.58 199.999 213.08 207.999C206.58 215.999 200.58 215.499 198.58 219.499C196.58 223.499 196.58 224.499 196.58 228.499Z" fill="#2B2B2B"/>
<path d="M218.08 451.633C218.08 451.633 202.835 506.29 203.699 540.693H305.632H320.578C320.578 540.693 319.578 513.499 315.078 495.499C310.578 477.499 299.103 454.286 299.103 454.286C299.103 454.286 254.57 477.105 218.08 451.633Z" fill="#F4EFEF"/>
<path d="M117.578 384.5C132.578 387 161.574 378.232 179.578 361C193.455 347.723 191.078 329.824 212.078 315C220.578 309 229.661 308.405 234.578 301.5C239.54 294.531 238.078 284 238.078 284C248.578 286 258.349 286.426 263.078 281.5C272.578 308.5 273.873 303.78 283.078 311C308.578 331 297.974 375.391 299.078 406C303.078 441.011 308.578 473 308.578 473C269.078 513 208.963 486.5 208.963 486.5C212.078 468 212.078 444 208.963 414C206.794 393.112 204.578 388 204.578 388C196.578 396.5 186.712 400.489 186.712 400.489C163.578 414 128.578 405.5 117.578 401.902V384.5Z" fill="#00181B"/>
<g style="mix-blend-mode:multiply" opacity="0.3">
<path d="M266.902 465.07C266.722 466.282 266.551 467.463 266.38 468.635C266.551 467.463 266.722 466.282 266.902 465.07Z" fill="black"/>
</g>
<g style="mix-blend-mode:multiply" opacity="0.3">
<path d="M267.044 464.15C267.044 463.829 267.134 463.509 267.184 463.148C267.144 463.509 267.084 463.829 267.044 464.15Z" fill="black"/>
</g>
<path d="M266.442 522L270.578 541H260.578C262.578 532 265.805 524.167 266.442 522Z" fill="#152D5D"/>
<path d="M266.578 522L270.578 541H278.578L274.578 526.5L285.078 520.5C280.278 521.3 270.745 521.833 266.578 522Z" fill="#666A6A"/>
<path d="M108.578 379.5V376L105.578 377L108.578 379.5Z" fill="black"/>
<path d="M84.6595 365.69L108.446 375.899L96.3665 382.682L72.5805 372.473L84.6595 365.69Z" fill="#00181B"/>
<path d="M72.5781 377.5V372.5L78.5781 375L79.5781 380.5L72.5781 377.5Z" fill="black"/>
<path d="M84.6595 370.69L108.446 380.899L96.3665 387.682L72.5805 377.473L84.6595 370.69Z" fill="#00181B"/>
<ellipse cx="89.0781" cy="373.5" rx="5.5" ry="2.5" fill="#CC2131"/>
<path d="M65.5944 364.078L77.0795 369.999L80.0751 368.207L73.7164 364.948L72.2565 365.872L71.6911 364.15L69.9433 364.793L69.3779 363.07L64.7515 360.912L65.5944 364.078Z" fill="white"/>
<path d="M108.078 379C108.857 379.627 113.828 383.451 116.328 384.139L117.578 384.552V402C112.995 400.761 100.913 403.555 96.7465 403.968C92.5802 404.381 81.7478 400.664 78.4147 397.772C75.7483 395.458 75.9149 393.228 76.3316 392.401C74.665 391.079 75.0817 387.72 75.4983 386.205C73.8318 384.222 74.8039 381.247 75.4983 380.008C74.2484 377.116 80.079 375.464 80.9122 376.703C81.7455 377.943 87.995 380.834 90.0781 382.074C91.7447 383.065 97.1632 383.864 100.913 384.139C100.08 381.523 98.0798 376.125 96.7465 375.464C95.08 374.638 87.5806 375.051 89.2472 373.399C90.9137 371.746 99.663 371.333 101.746 373.399C103.829 375.464 106.744 377.926 108.078 379Z" fill="#E2BBA6"/>
<path d="M36.0781 492V459C33.4115 459 28.0781 462.2 28.0781 475C28.0781 487.8 33.4115 491.667 36.0781 492Z" fill="#081C42"/>
<ellipse cx="48.899" cy="475.499" rx="6.73107" ry="6.70642" fill="#666A6A"/>
<rect x="48.0703" y="472.188" width="1.65435" height="6.62007" fill="#152D5D"/>
<path d="M0.585927 156.143L6.45651 154.055L6.5947 154.008L7.07916 540.54H0.585927V156.143Z" fill="#E1E1E1"/>
<path d="M66.5749 306.427L66.6262 179.844L63.9609 179.031V306.427H66.5749Z" fill="#00181B"/>
</svg>
